public/assets/vectors/react-native.svg

<?xml version="1.0" encoding="UTF-8" standalone="no"?>
<svg
   xmlns:dc="http://purl.org/dc/elements/1.1/"
   xmlns:cc="http://creativecommons.org/ns#"
   xmlns:rdf="http://www.w3.org/1999/02/22-rdf-syntax-ns#"
   xmlns:svg="http://www.w3.org/2000/svg"
   xmlns="http://www.w3.org/2000/svg"
   xmlns:sodipodi="http://sodipodi.sourceforge.net/DTD/sodipodi-0.dtd"
   xmlns:inkscape="http://www.inkscape.org/namespaces/inkscape"
   width="100pt"
   height="100pt"
   viewBox="0 0 100 100"
   version="1.1"
   id="svg11"
   sodipodi:docname="react-native.svg"
   inkscape:version="0.92.4 (5da689c313, 2019-01-14)">
  <metadata
     id="metadata17">
    <rdf:RDF>
      <cc:Work
         rdf:about="">
        <dc:format>image/svg+xml</dc:format>
        <dc:type
           rdf:resource="http://purl.org/dc/dcmitype/StillImage" />
        <dc:title />
      </cc:Work>
    </rdf:RDF>
  </metadata>
  <defs
     id="defs15" />
  <sodipodi:namedview
     pagecolor="#ffffff"
     bordercolor="#666666"
     borderopacity="1"
     objecttolerance="10"
     gridtolerance="10"
     guidetolerance="10"
     inkscape:pageopacity="0"
     inkscape:pageshadow="2"
     inkscape:window-width="1920"
     inkscape:window-height="1017"
     id="namedview13"
     showgrid="false"
     inkscape:document-units="pt"
     inkscape:zoom="2.2125"
     inkscape:cx="-20.112995"
     inkscape:cy="53.333333"
     inkscape:window-x="1592"
     inkscape:window-y="-8"
     inkscape:window-maximized="1"
     inkscape:current-layer="svg11" />
  <g
     id="surface177331"
     transform="matrix(1.0434426,0,0,1.0434426,8.2622877,8.2609977)">
    <path
       style="fill:none;stroke:#1e94f3;stroke-width:2;stroke-linecap:butt;stroke-linejoin:miter;stroke-miterlimit:10;stroke-opacity:1"
       d="M 24,15 C 11.85,15 1.999219,19.028906 1.999219,24 1.999219,28.971094 11.85,33 24,33 36.15,33 46.000781,28.971094 46.000781,24 46.000781,19.028906 36.15,15 24,15 Z m 0,0"
       transform="scale(1.666667)"
       id="path2"
       inkscape:connector-curvature="0" />
    <path
       style="fill:none;stroke:#1e94f3;stroke-width:2;stroke-linecap:butt;stroke-linejoin:miter;stroke-miterlimit:10;stroke-opacity:1"
       d="M 23.998294,15.000733 C 11.84926,15.000176 1.998211,19.031408 1.998241,24.000211 c 0.0012,4.970833 9.850931,8.999812 21.999965,9.00037 12.151065,-6.15e-4 22.001256,-4.028645 22.000053,-8.999478 8.28e-4,-4.972005 -9.8489,-9.000984 -21.999965,-9.00037 z m 0,0"
       transform="matrix(0.833333,-1.443376,1.443376,0.833333,-14.64246,54.641849)"
       id="path4"
       inkscape:connector-curvature="0" />
    <path
       style="fill:none;stroke:#1e94f3;stroke-width:2;stroke-linecap:butt;stroke-linejoin:miter;stroke-miterlimit:10;stroke-opacity:1"
       d="m 23.998405,1.999905 c -4.970833,-0.0012 -8.998863,9.848989 -8.999478,22.000053 5.58e-4,12.149035 4.029537,21.998763 9.00037,21.999965 4.969975,-0.002 9.000035,-9.851018 8.999478,-22.000053 C 32.999389,11.848806 28.97041,1.999078 23.998405,1.999905 Z m 0,0"
       transform="matrix(1.443376,-0.833333,0.833333,1.443376,-14.641239,25.358151)"
       id="path6"
       inkscape:connector-curvature="0" />
    <path
       style="fill:#f84514;fill-opacity:1;fill-rule:nonzero;stroke:none"
       d="m 40,33.332031 c -3.683594,0 -6.667969,2.984375 -6.667969,6.667969 0,3.683594 2.984375,6.667969 6.667969,6.667969 3.683594,0 6.667969,-2.984375 6.667969,-6.667969 0,-3.683594 -2.984375,-6.667969 -6.667969,-6.667969 z m 0,0"
       id="path8"
       inkscape:connector-curvature="0" />
  </g>
</svg>

<?xml version="1.0" encoding="UTF-8"?>
<svg xmlns="http://www.w3.org/2000/svg" xmlns:xlink="http://www.w3.org/1999/xlink" width="80pt" height="80pt" viewBox="0 0 80 80" version="1.1">
<g id="surface177331">
<path style="fill:none;stroke-width:2;stroke-linecap:butt;stroke-linejoin:miter;stroke:rgb(12.941176%,58.823529%,95.294118%);stroke-opacity:1;stroke-miterlimit:10;" d="M 24 15 C 11.85 15 1.999219 19.028906 1.999219 24 C 1.999219 28.971094 11.85 33 24 33 C 36.15 33 46.000781 28.971094 46.000781 24 C 46.000781 19.028906 36.15 15 24 15 Z M 24 15 " transform="matrix(1.666667,0,0,1.666667,0,0)"/>
<path style="fill:none;stroke-width:2;stroke-linecap:butt;stroke-linejoin:miter;stroke:rgb(12.941176%,58.823529%,95.294118%);stroke-opacity:1;stroke-miterlimit:10;" d="M 23.998294 15.000733 C 11.84926 15.000176 1.998211 19.031408 1.998241 24.000211 C 1.999444 28.971044 11.849172 33.000023 23.998206 33.000581 C 36.149271 32.999966 45.999462 28.971936 45.998259 24.001103 C 45.999087 19.029098 36.149359 15.000119 23.998294 15.000733 Z M 23.998294 15.000733 " transform="matrix(0.833333,-1.443376,1.443376,0.833333,-14.64246,54.641849)"/>
<path style="fill:none;stroke-width:2;stroke-linecap:butt;stroke-linejoin:miter;stroke:rgb(12.941176%,58.823529%,95.294118%);stroke-opacity:1;stroke-miterlimit:10;" d="M 23.998405 1.999905 C 19.027572 1.998703 14.999542 11.848894 14.998927 23.999958 C 14.999485 36.148993 19.028464 45.998721 23.999297 45.999923 C 28.969272 45.997924 32.999332 36.148905 32.998775 23.99987 C 32.999389 11.848806 28.97041 1.999078 23.998405 1.999905 Z M 23.998405 1.999905 " transform="matrix(1.443376,-0.833333,0.833333,1.443376,-14.641239,25.358151)"/>
<path style=" stroke:none;fill-rule:nonzero;fill:rgb(97.647059%,27.058824%,8.235294%);fill-opacity:1;" d="M 40 33.332031 C 36.316406 33.332031 33.332031 36.316406 33.332031 40 C 33.332031 43.683594 36.316406 46.667969 40 46.667969 C 43.683594 46.667969 46.667969 43.683594 46.667969 40 C 46.667969 36.316406 43.683594 33.332031 40 33.332031 Z M 40 33.332031 "/>
</g>
</svg>
